Pods/ProtonCore-UIFoundations/libraries/UIFoundations/Sources/Assets.xcassets/Images/IconSet/ic-window-terminal.imageset/ic-window-terminal.svg

<svg width="24" height="24" viewBox="0 0 24 24" fill="none" xmlns="http://www.w3.org/2000/svg">
<path fill-rule="evenodd" clip-rule="evenodd" d="M4.5 4.5H19.5C20.3284 4.5 21 5.17157 21 6L21 6.75H3V6C3 5.17157 3.67157 4.5 4.5 4.5ZM1.5 8.25V6.75V6C1.5 4.34315 2.84315 3 4.5 3H19.5C21.1569 3 22.5 4.34315 22.5 6V18C22.5 19.6569 21.1569 21 19.5 21H4.5C2.84315 21 1.5 19.6569 1.5 18V8.25ZM3 8.25H21L21 18C21 18.8284 20.3284 19.5 19.5 19.5H4.5C3.67157 19.5 3 18.8284 3 18V8.25ZM12.75 17.25H18C18.4142 17.25 18.75 16.9142 18.75 16.5C18.75 16.0858 18.4142 15.75 18 15.75H12.75C12.3358 15.75 12 16.0858 12 16.5C12 16.9142 12.3358 17.25 12.75 17.25ZM6.21967 9.96967C6.51256 9.67678 6.98744 9.67678 7.28033 9.96967L10.0682 12.7575C10.4782 13.1676 10.4782 13.8324 10.0682 14.2425L7.28033 17.0303C6.98744 17.3232 6.51256 17.3232 6.21967 17.0303C5.92678 16.7374 5.92678 16.2626 6.21967 15.9697L8.68934 13.5L6.21967 11.0303C5.92678 10.7374 5.92678 10.2626 6.21967 9.96967Z" fill="#0C0C14"/>
</svg>

<svg xmlns="http://www.w3.org/2000/svg" width="24" height="24" viewBox="0 0 24 24">
  <g class="ic-window-terminal">
    <path fill-rule="evenodd" d="M4.5 4.5h15A1.5 1.5 0 0 1 21 6v.75H3V6a1.5 1.5 0 0 1 1.5-1.5Zm-3 3.75V6a3 3 0 0 1 3-3h15a3 3 0 0 1 3 3v12a3 3 0 0 1-3 3h-15a3 3 0 0 1-3-3V8.25Zm1.5 0h18V18a1.5 1.5 0 0 1-1.5 1.5h-15A1.5 1.5 0 0 1 3 18V8.25Zm9.75 9H18a.75.75 0 0 0 0-1.5h-5.25a.75.75 0 0 0 0 1.5ZM6.22 9.97a.75.75 0 0 1 1.06 0l2.788 2.787c.41.41.41 1.075 0 1.486L7.28 17.03a.75.75 0 0 1-1.06-1.06l2.47-2.47-2.47-2.47a.75.75 0 0 1 0-1.06Z" class="Icon"/>
  </g>
</svg>
